src/Assets/icon/icon_rewards.svg

<svg fill="none" height="24" viewBox="0 0 24 24" width="24" xmlns="http://www.w3.org/2000/svg"><path clip-rule="evenodd" d="m8.90911 5.66667h2.75759 2.7576c1.0543 0 1.9091-.59696 1.9091-1.33334s-.8548-1.33333-1.9091-1.33333c-1.0544 0-2.7576 1.93029-2.7576 2.66667 0-.73638-1.70323-2.66667-2.75759-2.66667s-1.90909.59695-1.90909 1.33333.85473 1.33334 1.90909 1.33334zm-5.24242 2.16666c0-.82842.67157-1.5 1.5-1.5h5.83331v5.33337h-5.83331c-.82843 0-1.5-.6716-1.5-1.5zm14.50001-1.5c.8284 0 1.5.67158 1.5 1.5v2.33337c0 .8284-.6716 1.5-1.5 1.5h-5.8333v-5.33337zm-13.16668 5.99997h5.99998v8.6667h-4.49998c-.82843 0-1.5-.6716-1.5-1.5v-.0051c.03267.0034.0656.0051.09867.0051.20357-.0002.40184-.0664.56634-.1891.1103.0818.23638.1387.36983.1668l.03174.0068c.16327.0286.33101.0136.48698-.0435.15598-.0571.29492-.1544.4034-.2825s.18282-.2827.21584-.4488.0236-.3382-.02735-.4995c.16386-.1226.28584-.2949.34869-.4925.06284-.1975.06335-.4103.00145-.6081v-.0023c-.06342-.1972-.18591-.369-.3501-.491s-.36174-.188-.56464-.1886c-.06332-.1972-.18584-.3688-.3501-.4905s-.36187-.1872-.56465-.1872-.40039.0655-.56465.1872c-.03586.0266-.06974.0555-.10145.0866zm7.33338 0h6v1.4416c-.0321-.0315-.0663-.0608-.1026-.0877-.1643-.1217-.3619-.1872-.5647-.1872s-.4004.0655-.5646.1872c-.1643.1217-.2868.2933-.3501.4905-.2029.0006-.4005.0666-.5647.1886s-.2867.2938-.3501.491v.0191c-.0767.2471-.0546.5152.0613.7457l.0153.028c.0674.1213.1591.2266.2692.309-.0631.1981-.0633.4115-.0005.6096.0628.1982.1854.3708.3501.4932.1647.1225.3631.1883.5667.1881s.4018-.0664.5663-.1891c.1103.0818.2364.1387.3699.1668l.0317.0068c.0885.0155.1782.0182.2668.0083v2.2572c0 .8284-.6716 1.5-1.5 1.5h-4.5zm5.3316 3.4355c-.0766 0-.1515-.0233-.2152-.0668-.0637-.0436-.1133-.1055-.1426-.1779-.0293-.0725-.037-.1522-.0221-.229.015-.0769.0519-.1476.106-.203.0542-.0554.1232-.0932.1984-.1085.0751-.0153.153-.0074.2238.0226.0707.03.1312.0808.1738.146s.0653.1418.0653.2202c0 .1051-.0408.2059-.1135.2803-.0726.0743-.1711.1161-.2739.1161zm-12.21517 2.1832c.0637.0435.13859.0668.2152.0668.10273 0 .20125-.0418.27389-.1161.07264-.0744.11345-.1752.11345-.2803 0-.0784-.02272-.155-.06528-.2202s-.10305-.116-.17383-.146-.14866-.0379-.2238-.0226-.14416.0531-.19833.1085-.09106.1261-.10601.203c-.01494.0768-.00727.1565.02205.229.02931.0724.07896.1343.14266.1779z" fill="#595959" fill-rule="evenodd"/></svg>

<svg width="24" height="24" viewBox="0 0 24 24" fill="none" xmlns="http://www.w3.org/2000/svg">
<path fill-rule="evenodd" clip-rule="evenodd" d="M8.90911 5.66667H11.6667H14.4243C15.4786 5.66667 16.3334 5.06971 16.3334 4.33333C16.3334 3.59695 15.4786 3 14.4243 3C13.3699 3 11.6667 4.93029 11.6667 5.66667C11.6667 4.93029 9.96347 3 8.90911 3C7.85475 3 7.00002 3.59695 7.00002 4.33333C7.00002 5.06971 7.85475 5.66667 8.90911 5.66667ZM3.66669 7.83333C3.66669 7.00491 4.33826 6.33333 5.16669 6.33333H11V11.6667H5.16669C4.33826 11.6667 3.66669 10.9951 3.66669 10.1667V7.83333ZM18.1667 6.33333C18.9951 6.33333 19.6667 7.00491 19.6667 7.83333V10.1667C19.6667 10.9951 18.9951 11.6667 18.1667 11.6667H12.3334V6.33333H18.1667ZM5.00002 12.3333H11V21H6.50002C5.67159 21 5.00002 20.3284 5.00002 19.5V19.4949C5.03269 19.4983 5.06562 19.5 5.09869 19.5C5.30226 19.4998 5.50053 19.4336 5.66503 19.3109C5.77533 19.3927 5.90141 19.4496 6.03486 19.4777L6.0666 19.4845C6.22987 19.5131 6.39761 19.4981 6.55358 19.441C6.70956 19.3839 6.8485 19.2866 6.95698 19.1585C7.06546 19.0304 7.1398 18.8758 7.17282 18.7097C7.20584 18.5436 7.19642 18.3715 7.14547 18.2102C7.30933 18.0876 7.43131 17.9153 7.49416 17.7177C7.557 17.5202 7.55751 17.3074 7.49561 17.1096V17.1073C7.43219 16.9101 7.3097 16.7383 7.14551 16.6163C6.98132 16.4943 6.78377 16.4283 6.58087 16.4277C6.51755 16.2305 6.39503 16.0589 6.23077 15.9372C6.06651 15.8155 5.8689 15.75 5.66612 15.75C5.46334 15.75 5.26573 15.8155 5.10147 15.9372C5.06561 15.9638 5.03173 15.9927 5.00002 16.0238V12.3333ZM12.3334 12.3333H18.3334V13.7749C18.3013 13.7434 18.2671 13.7141 18.2308 13.6872C18.0665 13.5655 17.8689 13.5 17.6661 13.5C17.4633 13.5 17.2657 13.5655 17.1015 13.6872C16.9372 13.8089 16.8147 13.9805 16.7514 14.1777C16.5485 14.1783 16.3509 14.2443 16.1867 14.3663C16.0225 14.4883 15.9 14.6601 15.8366 14.8573V14.8764C15.7599 15.1235 15.782 15.3916 15.8979 15.6221L15.9132 15.6501C15.9806 15.7714 16.0723 15.8767 16.1824 15.9591C16.1193 16.1572 16.1191 16.3706 16.1819 16.5687C16.2447 16.7669 16.3673 16.9395 16.532 17.0619C16.6967 17.1844 16.8951 17.2502 17.0987 17.25C17.3023 17.2498 17.5005 17.1836 17.665 17.0609C17.7753 17.1427 17.9014 17.1996 18.0349 17.2277L18.0666 17.2345C18.1551 17.25 18.2448 17.2527 18.3334 17.2428V19.5C18.3334 20.3284 17.6618 21 16.8334 21H12.3334V12.3333ZM17.665 15.7688C17.5884 15.7688 17.5135 15.7455 17.4498 15.702C17.3861 15.6584 17.3365 15.5965 17.3072 15.5241C17.2779 15.4516 17.2702 15.3719 17.2851 15.2951C17.3001 15.2182 17.337 15.1475 17.3911 15.0921C17.4453 15.0367 17.5143 14.9989 17.5895 14.9836C17.6646 14.9683 17.7425 14.9762 17.8133 15.0062C17.884 15.0362 17.9445 15.087 17.9871 15.1522C18.0297 15.2174 18.0524 15.294 18.0524 15.3724C18.0524 15.4775 18.0116 15.5783 17.9389 15.6527C17.8663 15.727 17.7678 15.7688 17.665 15.7688ZM5.44983 17.952C5.51353 17.9955 5.58842 18.0188 5.66503 18.0188C5.76776 18.0188 5.86628 17.977 5.93892 17.9027C6.01156 17.8283 6.05237 17.7275 6.05237 17.6224C6.05237 17.544 6.02965 17.4674 5.98709 17.4022C5.94453 17.337 5.88404 17.2862 5.81326 17.2562C5.74248 17.2262 5.6646 17.2183 5.58946 17.2336C5.51432 17.2489 5.4453 17.2867 5.39113 17.3421C5.33696 17.3975 5.30007 17.4682 5.28512 17.5451C5.27018 17.6219 5.27785 17.7016 5.30717 17.7741C5.33648 17.8465 5.38613 17.9084 5.44983 17.952Z" fill="#595959"/>
</svg>
